X:1
T:Great God, whose universal sway
T:Great God, whose universal sway - Enderby (Thomas Jarman)
C:Thomas Jarman
Z:Text: Isaac Watts, on Ps. 72.
%%score [ 1 2 3 4 ]
L:1/8
M:2/2
K:G
V:1 treble nm="Soprano" snm="S."
V:2 treble nm="Alto" snm="A."
V:3 treble-8 transpose=-12 nm="Tenor" snm="T."
V:4 bass nm="Bass" snm="B."
V:1
 G4 B2 d2 | (efge d2) c2 | B4 A4 | G4 z2 A2 | B4 d4 | (e2 f2 g2) e2 | f4 e4 | d8 | d4 e2 f2 | %9
w: With pow’r he|vin- * * * * di-|cates the|just, And|treads th’op-|pres- * * sor|in the|dust;|His wor- ship|
w: Great God, whose|u- * * * * ni-|ver- sal|sway The|known and|un- * * known|worlds o-|bey,|Now give the|
w: Thy scep- tre|well _ _ _ _ be-|comes his|hands, All|heav’n sub-|mits _ _ to|his com-|mands;|His jus- tice|
 g6 f2 | (e2 d2) (c2 B2) | (B4 A2)!p! d2 | (d2 B2) (c2 d2) | e6 g2 | (e2 c2) (B2 A2) | %15
w: and his|fear _ shall _|last _ Till|hours _ and _|years and|time _ be _|
w: king- dom|to _ thy _|Son, _ Ex-|tend _ his _|pow’r, ex-|alt _ his _|
w: shall a-|venge _ the _|poor, _ And|pride _ and _|rage pre-|vail _ no _|
 B4 z2!f! d2 | (e2 f2 g2) e2 | d6 c2 | B4 A4 | G8 |] %20
w: past, till|hours _ _ and|years and|time be|past.|
w: throne, ex-|tend _ _ his|pow’r, ex-|alt his|throne.|
w: more, and|pride _ _ and|rage pre-|vail no|more.|
V:2
 D4 D2 G2 | G6 G2 | G4 F4 | G4 z2 F2 | G6 G2 | G6 G2 | A4 G4 | F8 | G4 G2 D2 | D6 D2 | %10
w: With pow’r he|vin- di-|cates the|just, And|treads th’op-|pres- sor|in the|dust;|His wor- ship|and his|
w: Great God, whose|u- ni-|ver- sal|sway The|known and|un- known|worlds o-|bey,|Now give the|king- dom|
w: Thy scep- tre|well be-|comes his|hands, All|heav’n sub-|mits to|his com-|mands;|His jus- tice|shall a-|
 (E2 G2) (F2 G2) | (G4 F2)"^["!p!"^]" B2 | (B2 G2) (A2 B2) | c6 e2 | (c2 A2) (G2 F2) | %15
w: fear _ shall _|last _ Till|hours _ and _|years and|time _ be _|
w: to _ thy _|Son, _ Ex-|tend _ his _|pow’r, ex-|alt _ his _|
w: venge _ the _|poor, _ And|pride _ and _|rage pre-|vail _ no _|
 G4 z2"^["!f!"^]" G2 | G4 G4 | G6 G2 | G4 F4 | G8 |] %20
w: past, till|hours and|years and|time be|past.|
w: throne, ex-|tend his|pow’r, ex-|alt his|throne.|
w: more, and|pride and|rage pre-|vail no|more.|
V:3
 B4 B2 B2 | (cdec d2) e2 | d4 c4 | B4 z2 A2 | G4 B4 | (c2 d2 e2) e2 | d4 ^c4 | d8 | B4 c2 c2 | %9
w: With pow’r he|vin- * * * * di-|cates the|just, And|treads th’op-|pres- * * sor|in the|dust;|His wor- ship|
w: Great God, whose|u- * * * * ni-|ver- sal|sway The|known and|un- * * known|worlds o-|bey,|Now give the|
w: Thy scep- tre|well _ _ _ _ be-|comes his|hands, All|heav’n sub-|mits _ _ to|his com-|mands;|His jus- tice|
 (B2 c2 B2) A2 | G4 (A2 Bc) | d6 z2 | z8 | z8 | z8 | z4 z2 B2 | (c2 d2 e2) c2 | (B2 c2 d2) e2 | %18
w: and _ _ his|fear shall _ _|last||||Till|hours _ _ and|years _ _ and|
w: king- * * dom|to thy _ _|Son,||||Ex-|tend _ _ his|pow’r, _ _ ex-|
w: shall _ _ a-|venge the _ _|poor,||||And|pride _ _ and|rage _ _ pre-|
 d4 c4 | B8 |] %20
w: time be|past,|
w: alt his|throne.|
w: vail no|more.|
V:4
 G,4 G,2 G,2 | (C,4"^6" B,,2) C,2 |"^64" D,4"^75" D,4 | G,,4 z2 D,2 | G,4 G,4 | C,6 C,2 | %6
w: With pow’r he|vin- * di-|cates the|just, And|treads th’op-|pres- sor|
w: Great God, whose|u- * ni-|ver- sal|sway The|known and|un- known|
w: Thy scep- tre|well _ be-|comes his|hands, All|heav’n sub-|mits to|
"^64" A,,4"^7#" A,,4 | D,8 | G,4 C2"^643" A,2 |"^6" (B,2 A,2 G,2) D,2 | (C2 B,2)"^6" (A,2 G,2) | %11
w: in the|dust;|His wor- ship|and _ _ his|fear _ shall _|
w: worlds o-|bey,|Now give the|king- * * dom|to _ thy _|
w: his com-|mands;|His jus- tice|shall _ _ a-|venge _ the _|
"^64" D,6"^53""^["!p!"^]" [G,,G,]2 | G,4"^53""^64" =F,4 | %13
w: last Till|hours and|
w: Son, Ex-|tend his|
w: poor, And|pride and|
"^Notes:The original order of parts is Tenor - Alto - Air - [Bass]: the alto part is printed in the treble clef an octave abovesounding pitch in the source.Only the first verse of the text is given in the source: selected subsequent verses have been added editorially.The part given here as an alto part, from the fourth crotchet of bar 12 to the minim in bar 16 inclusive, is printed in thesource on the tenor stave, marked ‘Treb’, and followed by the marking ‘Ten’ over the last crotchet of bar 16 to mark theresumption of the tenor part.""^6" E,6 [G,,G,]2 | %14
w: years and|
w: pow’r, ex-|
w: rage pre-|
"^6" C,4"^64""^53""^The heathen lands that lie beneathThe shades of overspreading death,Revive at his first dawning light,And deserts blossom at the sight.The saints shall flourish in his days,Dress’d in the robes of joy and praise:Peace like a river from his throneShall flow to nations yet unknown." D,4 | %15
w: time be|
w: alt his|
w: vail no|
 G,,4 z2"^["!f!"^]" G,2 |"^64""^75" G,4"^64" G,4 |"^53" (G,2 A,2"^6" B,2) C2 |"^64" D4"^7" D,4 | %19
w: past, till|hours and|years _ _ and|time be|
w: throne, ex-|tend his|pow’r, _ _ ex-|alt his|
w: more, and|pride and|rage _ _ pre-|vail no|
 G,8 |] %20
w: past.|
w: throne.|
w: more.|

